Obsidian-SemiLight/actions/24s/formula.svg

<svg viewBox="0 0 24 24" xmlns="http://www.w3.org/2000/svg"><path d="m14.220703 4-3.591797 13.408203-2.5449216-4.408203h-.0839844-4v1h3.5058594l3.4648436 6 4.029297-15.0371094v.0371094h5v-1h-4.742188-.257812z" fill="#4d4d4d"/></svg>

<svg xmlns="http://www.w3.org/2000/svg" viewBox="0 0 24 24">
  <defs id="defs3051">
    <style type="text/css" id="current-color-scheme">
      .ColorScheme-Text {
        color:#4d4d4d;
      }
      </style>
  </defs>
 <path style="fill:currentColor;fill-opacity:1;stroke:none" 
     d="M 14.220703 4 L 10.628906 17.408203 L 8.0839844 13 L 8 13 L 4 13 L 4 14 L 7.5058594 14 L 10.970703 20 L 15 4.9628906 L 15 5 L 20 5 L 20 4 L 15.257812 4 L 15 4 L 14.220703 4 z "
     class="ColorScheme-Text"
     />
</svg>
